src/actions/symbolic/photo-camera-symbolic.svg

<svg width="16px" height="16px" version="1.1" viewBox="0 0 16 16" xmlns="http://www.w3.org/2000/svg">
 <g fill="#363636" stroke-linecap="round" stroke-linejoin="round">
  <path d="m10.5 6a3.5 3.5 0 0 0-3.5 3.5 3.5 3.5 0 0 0 3.5 3.5 3.5 3.5 0 0 0 3.5-3.5 3.5 3.5 0 0 0-3.5-3.5zm0 1a2.5 2.5 0 0 1 2.5 2.5 2.5 2.5 0 0 1-2.5 2.5 2.5 2.5 0 0 1-2.5-2.5 2.5 2.5 0 0 1 2.5-2.5z" stroke-width="1.4"/>
  <path d="m2 4c-1.108 0-2 0.892-2 2v7c0 1.108 0.892 2 2 2h12c1.108 0 2-0.892 2-2v-7c0-1.108-0.892-2-2-2zm0 1h12c0.554 0 1 0.446 1 1v7c0 0.554-0.446 1-1 1h-12c-0.554 0-1-0.446-1-1v-7c0-0.554 0.446-1 1-1z"/>
  <rect x="7" y="2" width="6" height="1" rx="0" ry="0"/>
  <rect x="2" y="6" width="2" height="1" rx="0" ry="0"/>
 </g>
</svg>

<svg xmlns="http://www.w3.org/2000/svg" width="16" height="16">
    <g fill="#050505" fill-opacity=".7" stroke-linecap="round" stroke-linejoin="round">
        <path d="M10.5 6A3.5 3.5 0 0 0 7 9.5a3.5 3.5 0 0 0 3.5 3.5A3.5 3.5 0 0 0 14 9.5 3.5 3.5 0 0 0 10.5 6zm0 1A2.5 2.5 0 0 1 13 9.5a2.5 2.5 0 0 1-2.5 2.5A2.5 2.5 0 0 1 8 9.5 2.5 2.5 0 0 1 10.5 7z"/>
        <path d="M2 4C.892 4 0 4.892 0 6v7c0 1.108.892 2 2 2h12c1.108 0 2-.892 2-2V6c0-1.108-.892-2-2-2zm0 1h12c.554 0 1 .446 1 1v7c0 .554-.446 1-1 1H2c-.554 0-1-.446-1-1V6c0-.554.446-1 1-1z"/>
        <rect width="6" height="1" x="7" y="2" rx="0" ry="0"/>
        <rect width="2" height="1" x="2" y="6" rx="0" ry="0"/>
    </g>
</svg>
